public/avatar/hat/225.svg

<svg xmlns:xlink="http://www.w3.org/1999/xlink" height="92.9" width="100.7" xmlns="http://www.w3.org/2000/svg"><use height="37.45" transform="translate(19.1 23.8)" width="39.9" xlink:href="#a"/><defs><g id="a" fill-rule="evenodd"><path d="M17.55-16.3q1.1 3-1.5 4.1 1.1 2.85-.15 4.25-.8.9-1.75 1.15l-.85.1q-.5 1.45-1.15 1.4l.1 5.15.45.6q.5.85.6 2.2.2 2.15-.2 8.85l-2-2.6q-1.5-4-2.3-4.5L-8.4 3.15l-4.75 7.35.15-8.55 1.3-1.9.1-6q-1.15-.5-1.4-1.25l-.35-1.15q-3 .15-3.6-2.35-.35-1.55.2-3l.65-1.1.9-.8q-.3-3.7 2-4.35l2.85-.35.5-1.75q.8-1.85 2.35-2.25 2.5-.55 4.8 1.25l1.65-1q2.1-.85 4.6-.05 1.9.55 2.25 2l2.55-.65q2.7-.45 3.65.4 1.5 1.3 1.5 3.15l1.75.35q1.65.65 2.3 2.55" transform="translate(19.55 25.95)"/><path d="m16.6-13.1-1.55 1.05q.25-.2.9 1.3.1.55-.45 1.85-.85 1.95-3.25 1.15.35.1-.35 1.15l-.4.55q-1.05.8-2.15.85l-5.3-.35-5.35-.55-6.1-.35-4.4-.45q-1.55-.95-.85-2.1-3.15.5-3.7-2.3-.65-3 2.25-3.45l-.1-2.05q0-1.05.9-1.8l1.85-1.05 2.1.25q-1.05-1.9 1-3.35 2-1.45 3.75-.65l1.9 1.3q.2 0 1.05-.75 2.2-.8 3.6-.75 3.6.1 3.3 2.7 1.8-1.45 4.9-1.15 2.4.2 2.6 3.6l2.9.3q.95.75 1.3 2.4.5 1.85-.35 2.65" fill="#e4e6e8" transform="translate(19.55 25.95)"/><path d="m10.75-12.3.85 16.1h-22.9l.7-16.1q.1-2.05 3.2-3.95 3.35-2 7.65-2 4.4 0 7.5 1.9 2.9 1.75 3 4.05" fill="#e4e6e8" transform="translate(19.55 25.95)"/><path d="M20-16.55q1.2 3.45-1.75 4.65 1.25 3.25-.15 4.85-.9 1-2.2 1.3l-1.1.05q-.75 2.3-2 2.2l-.2 4-24.85.65-.45-5.75q-1.9-.75-2.2-1.6l-.35-1.3q-3.45.15-4.1-2.7-.65-2.85.95-4.65l1.05-.95q-.4-4.15 2.3-4.9 2.65-.8 3.2-.4.4-3.9 3.25-4.55 2.85-.65 5.5 1.4 2.55-2.6 7.1-1.2 2.2.65 2.6 2.25l2.85-.7q3.1-.55 4.15.4 1.75 1.55 1.75 3.65l1.95.4q1.9.75 2.7 2.9" transform="translate(19.55 25.95)"/><path d="M18.85-12.9q-1.2.65-1.75 1.2.55-.45 1.05 1.5.1.8-.55 2.1-1.05 2.2-3.65 1.3.35.1-.45 1.35l-.45.55q-1.1.9-2.45 1l-6.05-.4-6.05-.6-6.95-.4-2.6-.05q-1.7 0-2.45-.5-1.85-1.1-.95-2.4-3.65.6-4.25-2.6-.65-3.45 2.6-3.95l-.15-2.3q0-1.2 1-2.05 1.4-1.05 2.15-1.2l2.4.25q-1.25-2.15 1.1-3.85 2.25-1.6 4.3-.7l2.2 1.5 1.15-.85q2.4-.95 4.1-.9 4.1.2 3.8 3.1 1.95-1.65 5.55-1.3 2.75.25 2.95 4.05l3.3.4q1.1.75 1.55 2.75.6 2.05-.45 3" fill="#fff" transform="translate(19.55 25.95)"/><path d="M12.45-12q.2 3.3-.6 15.8h-22.9Q-12.1-9.1-11.9-12q.15-2.35 3.65-4.45 3.8-2.3 8.7-2.3 5.05 0 8.55 2.15 3.3 2 3.45 4.6" fill="#fff" transform="translate(19.55 25.95)"/><path d="M1.95-16.25q-3.45.65-5-.9l-.8-.25 2.65-.1q1.55-.2 3.5-.95Q4-19.15 5.95-22q-.15 2.6-1.2 4.1-.85 1.15-2.8 1.65m.8.4 1.8-.75L3.8-2.25 2.25-2.4l.5-13.45" fill="#e4e6e8" transform="translate(19.55 25.95)"/><path d="m-8.85-1.1-1.6.9-.85.8q-.3-1.1-.2-1.7.1-1.05.85-1.4 1.1-.5 1.8 1.4" fill="#d0d2d4" transform="translate(19.55 25.95)"/><path d="m-3.45-2.4-2 .25L-9-1.2l.45-1.55Q-7.9-4.3-6.6-4.6q2.05-.4 3.15 2.2M4-2.4l-7.4.3.15-.5 1-1.25q1.2-1.3 2.5-1.3Q2.3-5.15 4-2.4" fill="#d0d2d4" transform="translate(19.55 25.95)"/><path d="M8.6-1.2 4.2-2.35l.75-14.8L9.2-14.1 8.95-1.65l-.35.45" fill="#e4e6e8" transform="translate(19.55 25.95)"/><path d="m9.25-1.15-5.4-1.3.9-1.25Q5.9-4.95 7-4.75q1.8.3 2.25 3.6" fill="#bababa" transform="translate(19.55 25.95)"/><path d="m12.5 8.4-.05 2q-2.1-1.55-3-2Q4.95 5.9-.2 5.9q-5.25 0-8.3 1.85l-3.95 3-.6-1.1q5.1-5.3 12.3-5.3 7.15 0 13.25 4.05" fill="#49494a" transform="translate(19.55 25.95)"/><path d="M8.95-1.1q3.35 1.65 3.5 3.3l.15 7.55Q8.5 5.25 0 5.25q-8.55 0-12.5 4.5.05-5.25.4-7.55.3-1.9 3.6-3.4Q-4.85-2.9.25-2.9q4.95 0 8.7 1.8" fill="#fff" transform="translate(19.55 25.95)"/><path d="m9.1-.65 1.2 4.45-1.5 3.35Q6.8 5.9 3.95 5.5L-.7 5.35q3.3-1.8 3.9-4.05.6-2.45 1.55-2.45l4.35.5" fill="#e4e6e8" transform="translate(19.55 25.95)"/><path d="M10.2-.2q1.55.75 2 1.6.75 1.45.35 8.5-2.45-2.3-4.3-3.05L5.7 6.1Q9 5.55 9.05 2.8L8.8-.75l1.4.55" fill="#bababa" transform="translate(19.55 25.95)"/><path d="M-12.75-12.5q.3.25.3 2.65l.1 2.6-.2 1.9q-2.2-.9-2.2-1.65-.05-.75.7-1.65l-1.8-.4q-.95-.25-1.1-.95v-.45q.1-1.95 2.45-2.05 1.4-.25 1.75 0" fill="#e4e6e8" transform="translate(19.55 25.95)"/><path d="m-12.55-5.5.15-5.2.35-2.4.05.45.1 7.2-.65-.05" fill="#b7b7ba" transform="translate(19.55 25.95)"/><path d="m9.7-.9.65-13.5.5-.05.75-.55 1 1.65-.8 14.1L9.7-.9" fill="#bababa" transform="translate(19.55 25.95)"/><path d="m11.85-2.45.85-13.1.6 1.8-.7 9.25-.75 2.05" fill="#7e7e80" transform="translate(19.55 25.95)"/><path d="M11.95-4.1q.5 0-.05 5.05L9.35-.7l2.6-3.4" fill="#7e7e80" transform="translate(19.55 25.95)"/><path d="m9.3-.95 1.05-15.4.6-.6-.9 16.45-.75-.45" fill="#78787a" transform="translate(19.55 25.95)"/><path d="M3.65-2.35 4.4-16.6l.75-.7L4.3-2.35h-.65" fill="#949496" transform="translate(19.55 25.95)"/><path d="m-8.7-.95-.55.25-.95-13.9h.6l.9 13.65m5.7-1.4h-.7l-.8-15.1.75.05L-3-2.35" fill="#b7b7ba" transform="translate(19.55 25.95)"/><path d="m9.2-1-.7-.5.6-13.35 1.15.45-.8 13.7L9.2-1" fill="#bababa" transform="translate(19.55 25.95)"/><path d="M-11.6.95q.4-.9 2.05-1.85Q-6.25-2.75 0-2.75q10 0 11.9 3.7-3.25-3.2-12-3.2T-11.6.95" fill="#49494a" transform="translate(19.55 25.95)"/><path d="M18.1-14.35q.1 1.95-1.45 2.5 0 .5.65 1.55v1.35q-.05 1.1-1.25 1.85l-2.1.45L12.7-5.1l.4-7.9-1.05-1.1q-.3-.65-1.4-.5-2.45.15-2.9-.45l-2.2-1.8q1.15.55 2.8.45 1.7-.15 2.6-.95.65-.6.9-3.75 1.65.05 2.15 2.2.45 2.05-.5 3.35l2.15-.15q1.4-.8 1.5-1.65.9 1.4.95 3" fill="#bababa" transform="translate(19.55 25.95)"/><path d="m11.6-13.9-.3-.8q-1.1.8-2.75.35-1-.25-2.25-1.45l-1.1-1.15Q3.1-15.1.2-15.1q-1.85 0-3.75-1.25l-1.5-1.3q-2.1 2.7-3.75 3.15h-2.9q0 .85-.85 1.15h-.75q.55 0 1.3-2.1 1.5.7 3.1.45 2.4-.45 3.65-3.2l.3-.25q2.45 2.6 5.7 2.6 2.85 0 4.55-2.05 1.35 2.5 3.45 2.9 1.7.25 3.1-.45.75 2.1 1.35 2.1l1.4-.05q-1 .7-2 .45-.6-.15-1-.95" fill="#7e7e80" transform="translate(19.55 25.95)"/><path d="M.75-15.9q-2 .1-2.85-.4.35-.25.65-.55 2.35-.1 4.4-1.25 2.4-1.3 2.9-3.35.5 3.45-2.2 5-.9.5-2.9.55" fill="#bababa" transform="translate(19.55 25.95)"/><path d="M-11.9-15.4q2-.55 4.35-1.75 1.4-.75 2.65-3.35l-.05 2.05q-.7 1.45-2.45 2.8-1.75 1.4-4.5.25" fill="#e4e6e8" transform="translate(19.55 25.95)"/></g></defs></svg>

<?xml version="1.0" encoding="UTF-8" standalone="no"?>
<svg xmlns:xlink="http://www.w3.org/1999/xlink" height="92.9px" width="100.7px" xmlns="http://www.w3.org/2000/svg">
  <g transform="matrix(1.0, 0.0, 0.0, 1.0, 38.65, 49.75)">
    <use height="37.45" transform="matrix(1.0, 0.0, 0.0, 1.0, -19.55, -25.95)" width="39.9" xlink:href="#shape0"/>
  </g>
  <defs>
    <g id="shape0" transform="matrix(1.0, 0.0, 0.0, 1.0, 19.55, 25.95)">
      <path d="M17.55 -16.3 Q18.65 -13.3 16.05 -12.2 17.15 -9.35 15.9 -7.95 15.1 -7.05 14.15 -6.8 L13.3 -6.7 Q12.8 -5.25 12.15 -5.3 L12.25 -0.15 12.7 0.45 Q13.2 1.3 13.3 2.65 13.5 4.8 13.1 11.5 L11.1 8.9 Q9.6 4.9 8.8 4.4 L-8.4 3.15 -13.15 10.5 -13.0 1.95 -11.7 0.05 -11.6 -5.95 Q-12.75 -6.45 -13.0 -7.2 L-13.35 -8.35 Q-16.35 -8.2 -16.95 -10.7 -17.3 -12.25 -16.75 -13.7 L-16.1 -14.8 -15.2 -15.6 Q-15.5 -19.3 -13.2 -19.95 L-10.35 -20.3 -9.85 -22.05 Q-9.05 -23.9 -7.5 -24.3 -5.0 -24.85 -2.7 -23.05 L-1.05 -24.05 Q1.05 -24.9 3.55 -24.1 5.45 -23.55 5.8 -22.1 L8.35 -22.75 Q11.05 -23.2 12.0 -22.35 13.5 -21.05 13.5 -19.2 L15.25 -18.85 Q16.9 -18.2 17.55 -16.3" fill="#000000" fill-rule="evenodd" stroke="none"/>
      <path d="M16.6 -13.1 L15.05 -12.05 Q15.3 -12.25 15.95 -10.75 16.05 -10.2 15.5 -8.9 14.65 -6.95 12.25 -7.75 12.6 -7.65 11.9 -6.6 L11.5 -6.05 Q10.45 -5.25 9.35 -5.2 L4.05 -5.55 -1.3 -6.1 -7.4 -6.45 -11.8 -6.9 Q-13.35 -7.85 -12.65 -9.0 -15.8 -8.5 -16.35 -11.3 -17.0 -14.3 -14.1 -14.75 L-14.2 -16.8 Q-14.2 -17.85 -13.3 -18.6 L-11.45 -19.65 -9.35 -19.4 Q-10.4 -21.3 -8.35 -22.75 -6.35 -24.2 -4.6 -23.4 L-2.7 -22.1 Q-2.5 -22.1 -1.65 -22.85 0.55 -23.65 1.95 -23.6 5.55 -23.5 5.25 -20.9 7.05 -22.35 10.15 -22.05 12.55 -21.85 12.75 -18.45 L15.65 -18.15 Q16.6 -17.4 16.95 -15.75 17.45 -13.9 16.6 -13.1" fill="#e4e6e8" fill-rule="evenodd" stroke="none"/>
      <path d="M10.75 -12.3 L11.6 3.8 -11.3 3.8 -10.6 -12.3 Q-10.5 -14.35 -7.4 -16.25 -4.05 -18.25 0.25 -18.25 4.65 -18.25 7.75 -16.35 10.65 -14.6 10.75 -12.3" fill="#e4e6e8" fill-rule="evenodd" stroke="none"/>
      <path d="M20.0 -16.55 Q21.2 -13.1 18.25 -11.9 19.5 -8.65 18.1 -7.05 17.2 -6.05 15.9 -5.75 L14.8 -5.7 Q14.05 -3.4 12.8 -3.5 L12.6 0.5 -12.25 1.15 -12.7 -4.6 Q-14.6 -5.35 -14.9 -6.2 L-15.25 -7.5 Q-18.7 -7.35 -19.35 -10.2 -20.0 -13.05 -18.4 -14.85 L-17.35 -15.8 Q-17.75 -19.95 -15.05 -20.7 -12.4 -21.5 -11.85 -21.1 -11.45 -25.0 -8.6 -25.65 -5.75 -26.3 -3.1 -24.25 -0.55 -26.85 4.0 -25.45 6.2 -24.8 6.6 -23.2 L9.45 -23.9 Q12.55 -24.45 13.6 -23.5 15.35 -21.95 15.35 -19.85 L17.3 -19.45 Q19.2 -18.7 20.0 -16.55" fill="#000000" fill-rule="evenodd" stroke="none"/>
      <path d="M18.85 -12.9 Q17.65 -12.25 17.1 -11.7 17.65 -12.15 18.15 -10.2 18.25 -9.4 17.6 -8.1 16.55 -5.9 13.95 -6.8 14.3 -6.7 13.5 -5.45 L13.05 -4.9 Q11.95 -4.0 10.6 -3.9 L4.55 -4.3 -1.5 -4.9 -8.45 -5.3 -11.05 -5.35 Q-12.75 -5.35 -13.5 -5.85 -15.35 -6.95 -14.45 -8.25 -18.1 -7.65 -18.7 -10.85 -19.35 -14.3 -16.1 -14.8 L-16.25 -17.1 Q-16.25 -18.3 -15.25 -19.15 -13.85 -20.2 -13.1 -20.35 L-10.7 -20.1 Q-11.95 -22.25 -9.6 -23.95 -7.35 -25.55 -5.3 -24.65 L-3.1 -23.15 -1.95 -24.0 Q0.45 -24.95 2.15 -24.9 6.25 -24.7 5.95 -21.8 7.9 -23.45 11.5 -23.1 14.25 -22.85 14.45 -19.05 L17.75 -18.65 Q18.85 -17.9 19.3 -15.9 19.9 -13.85 18.85 -12.9" fill="#ffffff" fill-rule="evenodd" stroke="none"/>
      <path d="M12.45 -12.0 Q12.65 -8.7 11.85 3.8 L-11.05 3.8 Q-12.1 -9.1 -11.9 -12.0 -11.75 -14.35 -8.25 -16.45 -4.45 -18.75 0.45 -18.75 5.5 -18.75 9.0 -16.6 12.3 -14.6 12.45 -12.0" fill="#ffffff" fill-rule="evenodd" stroke="none"/>
      <path d="M1.95 -16.25 Q-1.5 -15.6 -3.05 -17.15 L-3.85 -17.4 -1.2 -17.5 Q0.35 -17.7 2.3 -18.45 4.0 -19.15 5.95 -22.0 5.8 -19.4 4.75 -17.9 3.9 -16.75 1.95 -16.25" fill="#e4e6e8" fill-rule="evenodd" stroke="none"/>
      <path d="M2.75 -15.85 L4.55 -16.6 3.8 -2.25 2.25 -2.4 2.75 -15.85" fill="#e4e6e8" fill-rule="evenodd" stroke="none"/>
      <path d="M-8.85 -1.1 L-10.45 -0.2 -11.3 0.6 Q-11.6 -0.5 -11.5 -1.1 -11.4 -2.15 -10.65 -2.5 -9.55 -3.0 -8.85 -1.1" fill="#d0d2d4" fill-rule="evenodd" stroke="none"/>
      <path d="M-3.45 -2.4 L-5.45 -2.15 -9.0 -1.2 -8.55 -2.75 Q-7.9 -4.3 -6.6 -4.6 -4.55 -5.0 -3.45 -2.4" fill="#d0d2d4" fill-rule="evenodd" stroke="none"/>
      <path d="M4.0 -2.4 L-3.4 -2.1 -3.25 -2.6 -2.25 -3.85 Q-1.05 -5.15 0.25 -5.15 2.3 -5.15 4.0 -2.4" fill="#d0d2d4" fill-rule="evenodd" stroke="none"/>
      <path d="M8.6 -1.2 L4.2 -2.35 4.95 -17.15 9.2 -14.1 8.95 -1.65 8.6 -1.2" fill="#e4e6e8" fill-rule="evenodd" stroke="none"/>
      <path d="M9.25 -1.15 L3.85 -2.45 4.75 -3.7 Q5.9 -4.95 7.0 -4.75 8.8 -4.45 9.25 -1.15" fill="#bababa" fill-rule="evenodd" stroke="none"/>
      <path d="M12.5 8.4 L12.45 10.4 Q10.35 8.85 9.45 8.4 4.95 5.9 -0.2 5.9 -5.45 5.9 -8.5 7.75 L-12.45 10.75 -13.05 9.65 Q-7.95 4.35 -0.75 4.35 6.4 4.35 12.5 8.4" fill="#49494a" fill-rule="evenodd" stroke="none"/>
      <path d="M8.95 -1.1 Q12.3 0.55 12.45 2.2 L12.6 9.75 Q8.5 5.25 0.0 5.25 -8.55 5.25 -12.5 9.75 -12.45 4.5 -12.1 2.2 -11.8 0.3 -8.5 -1.2 -4.85 -2.9 0.25 -2.9 5.2 -2.9 8.95 -1.1" fill="#ffffff" fill-rule="evenodd" stroke="none"/>
      <path d="M9.1 -0.65 L10.3 3.8 8.8 7.15 Q6.8 5.9 3.95 5.5 L-0.7 5.35 Q2.6 3.55 3.2 1.3 3.8 -1.15 4.75 -1.15 L9.1 -0.65" fill="#e4e6e8" fill-rule="evenodd" stroke="none"/>
      <path d="M10.2 -0.2 Q11.75 0.55 12.2 1.4 12.95 2.85 12.55 9.9 10.1 7.6 8.25 6.85 L5.7 6.1 Q9.0 5.55 9.05 2.8 L8.8 -0.75 10.2 -0.2" fill="#bababa" fill-rule="evenodd" stroke="none"/>
      <path d="M-12.75 -12.5 Q-12.45 -12.25 -12.45 -9.85 L-12.35 -7.25 -12.55 -5.35 Q-14.75 -6.25 -14.75 -7.0 -14.8 -7.75 -14.05 -8.65 L-15.85 -9.05 Q-16.8 -9.3 -16.95 -10.0 L-16.95 -10.45 Q-16.85 -12.4 -14.5 -12.5 -13.1 -12.75 -12.75 -12.5" fill="#e4e6e8" fill-rule="evenodd" stroke="none"/>
      <path d="M-12.55 -5.5 L-12.4 -10.7 -12.05 -13.1 -12.0 -12.65 -11.9 -5.45 -12.55 -5.5" fill="#b7b7ba" fill-rule="evenodd" stroke="none"/>
      <path d="M9.7 -0.9 L10.35 -14.4 10.85 -14.45 11.6 -15.0 12.6 -13.35 11.8 0.75 9.7 -0.9" fill="#bababa" fill-rule="evenodd" stroke="none"/>
      <path d="M11.85 -2.45 L12.7 -15.55 13.3 -13.75 12.6 -4.5 11.85 -2.45" fill="#7e7e80" fill-rule="evenodd" stroke="none"/>
      <path d="M11.95 -4.1 Q12.45 -4.1 11.9 0.95 L9.35 -0.7 11.95 -4.1" fill="#7e7e80" fill-rule="evenodd" stroke="none"/>
      <path d="M9.3 -0.95 L10.35 -16.35 10.95 -16.95 10.05 -0.5 9.3 -0.95" fill="#78787a" fill-rule="evenodd" stroke="none"/>
      <path d="M3.65 -2.35 L4.4 -16.6 5.15 -17.3 4.3 -2.35 3.65 -2.35" fill="#949496" fill-rule="evenodd" stroke="none"/>
      <path d="M-8.7 -0.95 L-9.25 -0.7 -10.2 -14.6 -9.6 -14.6 -8.7 -0.95" fill="#b7b7ba" fill-rule="evenodd" stroke="none"/>
      <path d="M-3.0 -2.35 L-3.7 -2.35 -4.5 -17.45 -3.75 -17.4 -3.0 -2.35" fill="#b7b7ba" fill-rule="evenodd" stroke="none"/>
      <path d="M9.2 -1.0 L8.5 -1.5 9.1 -14.85 10.25 -14.4 9.45 -0.7 9.2 -1.0" fill="#bababa" fill-rule="evenodd" stroke="none"/>
      <path d="M-11.6 0.95 Q-11.2 0.05 -9.55 -0.9 -6.25 -2.75 0.0 -2.75 10.0 -2.75 11.9 0.95 8.65 -2.25 -0.1 -2.25 -8.85 -2.25 -11.6 0.95" fill="#49494a" fill-rule="evenodd" stroke="none"/>
      <path d="M18.1 -14.35 Q18.2 -12.4 16.65 -11.85 16.65 -11.35 17.3 -10.3 L17.3 -8.95 Q17.25 -7.85 16.05 -7.1 L13.95 -6.65 12.7 -5.1 13.1 -13.0 12.05 -14.1 Q11.75 -14.75 10.65 -14.6 8.2 -14.45 7.75 -15.05 L5.55 -16.85 Q6.7 -16.3 8.35 -16.4 10.05 -16.55 10.95 -17.35 11.6 -17.95 11.85 -21.1 13.5 -21.05 14.0 -18.9 14.45 -16.85 13.5 -15.55 L15.65 -15.7 Q17.05 -16.5 17.15 -17.35 18.05 -15.95 18.1 -14.35" fill="#bababa" fill-rule="evenodd" stroke="none"/>
      <path d="M11.6 -13.9 L11.3 -14.7 Q10.2 -13.9 8.55 -14.35 7.55 -14.6 6.3 -15.8 L5.2 -16.95 Q3.1 -15.1 0.2 -15.1 -1.65 -15.1 -3.55 -16.35 L-5.05 -17.65 Q-7.15 -14.95 -8.8 -14.5 L-11.7 -14.5 Q-11.7 -13.65 -12.55 -13.35 L-13.3 -13.35 Q-12.75 -13.35 -12.0 -15.45 -10.5 -14.75 -8.9 -15.0 -6.5 -15.45 -5.25 -18.2 L-4.95 -18.45 Q-2.5 -15.85 0.75 -15.85 3.6 -15.85 5.3 -17.9 6.65 -15.4 8.75 -15.0 10.45 -14.75 11.85 -15.45 12.6 -13.35 13.2 -13.35 L14.6 -13.4 Q13.6 -12.7 12.6 -12.95 12.0 -13.1 11.6 -13.9" fill="#7e7e80" fill-rule="evenodd" stroke="none"/>
      <path d="M0.75 -15.9 Q-1.25 -15.8 -2.1 -16.3 -1.75 -16.55 -1.45 -16.85 0.9 -16.95 2.95 -18.1 5.35 -19.4 5.85 -21.45 6.35 -18.0 3.65 -16.45 2.75 -15.95 0.75 -15.9" fill="#bababa" fill-rule="evenodd" stroke="none"/>
      <path d="M-11.9 -15.4 Q-9.9 -15.95 -7.55 -17.15 -6.15 -17.9 -4.9 -20.5 L-4.95 -18.45 Q-5.65 -17.0 -7.4 -15.65 -9.15 -14.25 -11.9 -15.4" fill="#e4e6e8" fill-rule="evenodd" stroke="none"/>
    </g>
  </defs>
</svg>
